X: 10669
T: Down The Broom
R: reel
M: 4/4
K: Adorian
|:EAAG A2Bd|eg~g2 egdc|BGGF GAGE|DGBG AGED|
EAAG A2Bd|eg~g2 egdg|eg~g2 dgba|gedB BAAG:|
g|:a2ea ageg|agbg agef|g2dg egdg|gabg ageg|
a2ea ageg|agbg ageg|gedB GABd|e2dB eAAg:|

